!!!OTL: TANZ MIR NICHT MIT MEINER JUNGFER
!!!ARE: Europa, Mitteleuropa, Deutschland
!!!SCT: E0952
!!!YEM: Copyright 1995, estate of Helmut Schaffrath.
**kern
*ICvox
*Ivox
*M4/4
*k[]
*C:
=1
{4c
4e
4f
4e
=2
4d
4c
4B
4c
=3
2d
2d}
=4
{4c
4e
4f
4e
=5
4d
4c
4c
4B
=6
2c
2c}
=7
{4c
4e
4f
4e
=8
4d
4c
4B
4c
=9
2d
2d}
=10
{4c
4e
4f
4e
=11
4d
4c
4c
4B
=12
2c
2c}
=13
{4d
4c
4B
4c
=14
4d
4e
2d}
=15
{4d
4c
4B
4c
=16
4d
4e
2d}
=17
{4c
4e
4f
4e
=18
4d
4c
4c
4B
=19
2c
2c}
=20
{4d
4c
4B
4c
=21
4d
4e
2d}
=22
{4d
4c
4B
4c
=23
4d
4e
2d}
=24
{4c
4e
4f
4e
=25
4d
4c
4c
4B
=26
2c
2c}
==
!!!AGN: Tanz - Lied, Reigen
!!!ONB: ESAC (Essen Associative Code) Database: ERK2
!!!AMT: simple quadruple
!!!AIN: vox
!!!EED: Helmut Schaffrath
!!!EEV: 1.0
*-
